X:1
T:Title
%%score ( 1 2 )
L:1/8
M:2/4
K:Bb
V:1 treble nm="Grand Piano"
V:2 treble 
V:1
 z[Q:1/4=100] B BB | B2 BB- | B A3- | A4 | z G GG | G^F GA | A4- | A4 | z B BB | B2 BB- | B A3- | %11
 A4 | z G GG | G^F GA | A4 | G4 | z G2 B | A2 F2 | E4- | E4- | EC EA | GF G2 | D4- | D4 | z .G3 | %25
 A2 F2 | E4- | E4- | EC EA | GF G2 | D4- | DF ED | F4- | FG FE | G4- | GA G^F | ^F2 G2 | A4- | %38
 A2 D2 | c4 |[M:1/8] d |[M:3/8] BBB |[M:2/4] B2 BB- | B A3- | A4 | z G GG | G^F GA | A4- | A4 | %49
 z B BB | B2 BB- | B A3- | A4 | z G GG | G^F GA | A4 |[M:6/4] .G6 z6 |] %57
V:2
 x4 | x4 | x4 | x4 | x4 | x4 | x4 | x4 | x4 | x4 | x4 | x4 | x4 | x4 | x4 | x4 | z D z2 | z F z D | %18
 x4 | x4 | x4 | x4 | x4 | x4 | z D z B | z F z D | x4 | x4 | x4 | x4 | x4 | x4 | x4 | x4 | x4 | %35
 x4 | x4 | x4 | x4 | x4 |[M:1/8] x |[M:3/8] x3 |[M:2/4] x4 | x4 | x4 | x4 | x4 | x4 | x4 | x4 | %50
 x4 | x4 | x4 | x4 | x4 | x4 |[M:6/4] x12 |] %57

